packages/components/src/components/icon/dxtrade/ic-dxtrade-deriv-x.svg

<svg width="64" height="64" viewBox="0 0 64 64" fill="none" xmlns="http://www.w3.org/2000/svg">
<rect width="64" height="64" rx="4" fill="#FFAD3A"/>
<path d="M0 4C0 1.79086 1.79086 0 4 0H60C62.2091 0 64 1.79086 64 4V20H0V4Z" fill="#333333"/>
<g clip-path="url(#clip0_7871_8549)">
<path d="M36.7309 4.4856H33.5629L36.0567 9.82845L31.6757 15.1713H34.8455L39.2247 9.82845L36.7309 4.4856Z" fill="white"/>
<path d="M40.7944 4.4856H44L40.1986 9.07689L39.0499 6.61383L40.7944 4.4856Z" fill="white"/>
<path d="M38.9054 15.1713L37.9136 13.0448L39.9328 10.5818L42.0752 15.1713H38.9054Z" fill="white"/>
<path d="M22.6324 4.4856L26.7297 9.82845L20.1622 15.1713H26.8001C27.7408 15.1715 28.654 14.8509 29.3903 14.2662C30.1266 13.6816 30.6427 12.8651 30.8543 11.9499L31.4039 9.57297C31.5447 8.9641 31.546 8.33137 31.4079 7.72191C31.2697 7.11246 30.9956 6.54198 30.6059 6.05299C30.2162 5.564 29.7211 5.16911 29.1573 4.89772C28.5935 4.62634 27.9757 4.48547 27.3498 4.4856H22.6324Z" fill="white"/>
</g>
<path d="M34.9961 27.999L40.0012 33.9991L30.001 33.9991L34.9961 27.999Z" fill="white"/>
<path d="M53.1221 28.8779C54.2937 30.0495 54.2937 31.949 53.1221 33.1206L52.2432 33.9996H43.7577L48.8794 28.8779C50.051 27.7063 51.9506 27.7063 53.1221 28.8779Z" fill="white"/>
<path d="M41.7577 35.9996L35.7574 41.9999H44.2429L50.2431 35.9996H41.7577Z" fill="white"/>
<path d="M33.7574 43.9999H42.2428L32.1218 54.121C31.5591 54.6836 30.7961 54.9997 30.0004 54.9997C29.2047 54.9997 28.4417 54.6836 27.879 54.121L21.0002 47.2422L13.1214 55.121C11.9498 56.2926 10.0503 56.2926 8.8787 55.121C7.7071 53.9494 7.7071 52.0499 8.8787 50.8783L18.8789 40.8781C20.0505 39.7065 21.95 39.7065 23.1216 40.8781L30.0004 47.7569L33.7574 43.9999Z" fill="white"/>
<path d="M46.0001 43.9987L51.0052 49.9988L56.0003 43.9987H46.0001Z" fill="white"/>
<defs>
<clipPath id="clip0_7871_8549">
<rect width="24" height="11.6571" fill="white" transform="translate(20 4)"/>
</clipPath>
</defs>
</svg>

<svg width="64" height="64" fill="none" xmlns="http://www.w3.org/2000/svg"><rect width="64" height="64" rx="4" fill="#FFAD3A"/><path d="M0 4a4 4 0 0 1 4-4h56a4 4 0 0 1 4 4v16H0V4Z" fill="#333"/><g clip-path="url(#a)" fill="#fff"><path d="M36.73 4.486h-3.167l2.494 5.342-4.381 5.343h3.17l4.379-5.343-2.494-5.342ZM40.794 4.486H44l-3.801 4.59-1.15-2.462 1.745-2.128ZM38.905 15.171l-.991-2.126 2.019-2.463 2.142 4.59h-3.17ZM22.632 4.486l4.098 5.342-6.568 5.343H26.8a4.166 4.166 0 0 0 4.054-3.221l.55-2.377a4.147 4.147 0 0 0-2.247-4.675 4.165 4.165 0 0 0-1.807-.412h-4.718Z"/></g><path d="m34.996 27.999 5.005 6h-10l4.995-6ZM53.122 28.878a3 3 0 0 1 0 4.243l-.879.879h-8.485l5.121-5.122a3 3 0 0 1 4.243 0ZM41.758 36l-6 6h8.485l6-6h-8.485ZM33.757 44h8.486L32.122 54.12a3 3 0 0 1-4.243 0L21 47.242l-7.879 7.879a3 3 0 1 1-4.242-4.243l10-10a3 3 0 0 1 4.243 0L30 47.757 33.757 44ZM46 43.999l5.005 6 4.995-6H46Z" fill="#fff"/><defs><clipPath id="a"><path fill="#fff" transform="translate(20 4)" d="M0 0h24v11.657H0z"/></clipPath></defs></svg>
